X:1
T:Tom Morrison's Reel
R:Reel
M:C|
%%printtempo 0
Q:180
K:G
D2|\
"G"G2 GB "D"AGED|"G"G3 B d2 Bd|"C"efge dcBA|"D"GAFA EADA|
"G"G2 GB "D"AGED|"G"G3 B d2 Bd|"C"efge dcBA|"D"(3ABA G2 "G"G2:|
ef|\
"Em"g2 ge "D"a2 af|"C"gage "G"d2 Bd|"C"efge dcBA|"D"GAFA EADA|
"Em"g2 ge "D"a2 af|"C"gage "G"d2 Bd|"C"efge dcBA|"D"(3ABA G2 "G"G2ef|
"Em"g2 ge "D"a2 af|"C"gage "G"d2 Bd|"C"efge dcBA|"D"GAFA EADA|
"G"G2 GB "D"AGED|"G"G3 B d2 Bd|"C"efge dcBA|"D"(3ABA G2 "G"G2|]
